src/lib/packages/icons/src/assets/line/coupon-heart.svg

<svg xmlns="http://www.w3.org/2000/svg" width="24" height="24" fill="none"><path fill="currentColor" d="M18 20.75H6c-2.418 0-3.75-1.332-3.75-3.75v-3.75H3c.689 0 1.25-.561 1.25-1.25S3.689 10.75 3 10.75h-.75V7c0-2.418 1.332-3.75 3.75-3.75h12c2.418 0 3.75 1.332 3.75 3.75v3.75H21c-.689 0-1.25.561-1.25 1.25s.561 1.25 1.25 1.25h.75V17c0 2.418-1.332 3.75-3.75 3.75ZM3.75 14.646V17c0 1.577.673 2.25 2.25 2.25h12c1.577 0 2.25-.673 2.25-2.25v-2.354a2.754 2.754 0 0 1-2-2.646c0-1.257.847-2.319 2-2.646V7c0-1.577-.673-2.25-2.25-2.25H6c-1.577 0-2.25.673-2.25 2.25v2.354c1.153.327 2 1.389 2 2.646a2.754 2.754 0 0 1-2 2.646ZM12 16.5a.756.756 0 0 1-.309-.066c-.153-.069-3.764-1.732-4.353-4.746-.238-1.219-.002-2.375.65-3.17.541-.661 1.315-1.013 2.238-1.018h.014c.77 0 1.349.317 1.759.716A2.612 2.612 0 0 1 13.77 7.5c.924.004 1.698.356 2.24 1.017.65.794.888 1.949.65 3.17-.59 3.015-4.2 4.677-4.354 4.746A.718.718 0 0 1 12 16.5ZM10.24 9h-.005c-.469.002-.834.16-1.087.468-.361.441-.487 1.163-.337 1.931.355 1.819 2.4 3.083 3.188 3.51.788-.426 2.833-1.691 3.188-3.509.15-.769.024-1.492-.337-1.932-.253-.308-.618-.465-1.088-.468h-.005c-.736 0-1.021.73-1.05.814a.756.756 0 0 1-.708.5h-.008a.747.747 0 0 1-.704-.508C11.262 9.73 10.978 9 10.24 9Zm5.685 2.543h.01-.01Z"/></svg>

<svg width="24" height="24" viewBox="0 0 24 24" fill="none" xmlns="http://www.w3.org/2000/svg">
<path d="M18 20.75H6C3.582 20.75 2.25 19.418 2.25 17V13.25H3C3.689 13.25 4.25 12.689 4.25 12C4.25 11.311 3.689 10.75 3 10.75H2.25V7C2.25 4.582 3.582 3.25 6 3.25H18C20.418 3.25 21.75 4.582 21.75 7V10.75H21C20.311 10.75 19.75 11.311 19.75 12C19.75 12.689 20.311 13.25 21 13.25H21.75V17C21.75 19.418 20.418 20.75 18 20.75ZM3.75 14.646V17C3.75 18.577 4.423 19.25 6 19.25H18C19.577 19.25 20.25 18.577 20.25 17V14.646C19.097 14.319 18.25 13.257 18.25 12C18.25 10.743 19.097 9.681 20.25 9.354V7C20.25 5.423 19.577 4.75 18 4.75H6C4.423 4.75 3.75 5.423 3.75 7V9.354C4.903 9.681 5.75 10.743 5.75 12C5.75 13.257 4.903 14.319 3.75 14.646ZM12 16.5C11.895 16.5 11.789 16.478 11.691 16.434C11.538 16.365 7.92701 14.702 7.33801 11.688C7.10001 10.469 7.33606 9.31301 7.98706 8.51801C8.52906 7.85701 9.30295 7.505 10.226 7.5C10.231 7.5 10.236 7.5 10.24 7.5C11.01 7.5 11.589 7.817 11.999 8.216C12.412 7.814 13.034 7.514 13.77 7.5C14.694 7.504 15.468 7.856 16.01 8.517C16.66 9.311 16.8981 10.466 16.6591 11.687C16.0701 14.702 12.46 16.364 12.306 16.433C12.211 16.478 12.105 16.5 12 16.5ZM10.24 9C10.238 9 10.237 9 10.235 9C9.76599 9.002 9.40095 9.15999 9.14795 9.46799C8.78695 9.90899 8.66104 10.631 8.81104 11.399C9.16604 13.218 11.211 14.482 11.999 14.909C12.787 14.483 14.832 13.218 15.187 11.4C15.337 10.631 15.211 9.90799 14.85 9.46799C14.597 9.15999 14.232 9.003 13.762 9C13.761 9 13.759 9 13.757 9C13.021 9 12.736 9.73 12.707 9.814C12.6 10.112 12.315 10.314 11.999 10.314C11.997 10.314 11.994 10.314 11.991 10.314C11.672 10.311 11.388 10.109 11.287 9.806C11.262 9.73 10.978 9 10.24 9ZM15.925 11.543H15.9351H15.925Z" fill="currentColor"/>
</svg>
